src/assets/images/icons/icon-decorated-check.svg

<svg width="31" height="31" viewBox="0 0 31 31" fill="none" xmlns="http://www.w3.org/2000/svg">
<path fill-rule="evenodd" clip-rule="evenodd" d="M17.0448 1.21492L19.2453 3.08622C19.7248 3.49395 20.3204 3.74065 20.9477 3.79145L23.8268 4.02412C25.2935 4.14266 26.4579 5.30704 26.5765 6.77376L26.8092 9.65285C26.86 10.2802 27.1067 10.8758 27.5144 11.3553L29.3857 13.5557C30.3389 14.6766 30.3389 16.3233 29.3857 17.4442L27.5144 19.6447C27.1066 20.1242 26.8599 20.7198 26.8091 21.3472L26.5764 24.2262C26.4579 25.693 25.2935 26.8573 23.8268 26.9759L20.9477 27.2086C20.3204 27.2594 19.7248 27.5061 19.2453 27.9138L17.0448 29.7851C15.9239 30.7383 14.2772 30.7383 13.1563 29.7851L10.9559 27.9138C10.4764 27.5061 9.88082 27.2594 9.25343 27.2085L6.37434 26.9758C4.90763 26.8573 3.74325 25.6929 3.6247 24.2262L3.39197 21.3472C3.34116 20.7198 3.09446 20.1242 2.68673 19.6447L0.815506 17.4442C-0.137721 16.3233 -0.137721 14.6766 0.815506 13.5557L2.6868 11.3553C3.09453 10.8758 3.34123 10.2802 3.39204 9.65285L3.6247 6.77376C3.74325 5.30704 4.90763 4.14266 6.37434 4.02412L9.25343 3.79138C9.88082 3.74058 10.4764 3.49388 10.9559 3.08615L13.1563 1.21492C14.2772 0.261693 15.9239 0.261693 17.0448 1.21492ZM20.7433 10.135L13.5947 17.3224L10.1553 13.883L8.03421 16.004L13.5947 21.5646L22.8645 12.2561L20.7433 10.135Z" fill="white"/>
</svg>

<svg xmlns="http://www.w3.org/2000/svg" width="31" height="31" fill="none"><path fill="#fff" fill-rule="evenodd" d="m17.045 1.215 2.2 1.871c.48.408 1.075.655 1.703.705l2.879.233a3.001 3.001 0 0 1 2.75 2.75l.232 2.879c.051.627.298 1.223.705 1.702l1.872 2.2a3.001 3.001 0 0 1 0 3.89l-1.872 2.2a3.002 3.002 0 0 0-.705 1.702l-.233 2.88a3.001 3.001 0 0 1-2.75 2.749l-2.878.233a3.002 3.002 0 0 0-1.703.705l-2.2 1.871a3.001 3.001 0 0 1-3.889 0l-2.2-1.871a3.003 3.003 0 0 0-1.703-.706l-2.879-.232a3.001 3.001 0 0 1-2.75-2.75l-.232-2.879a3.002 3.002 0 0 0-.705-1.702l-1.871-2.2a3.001 3.001 0 0 1 0-3.89l1.87-2.2c.409-.48.655-1.075.706-1.702l.233-2.88a3.001 3.001 0 0 1 2.75-2.749l2.878-.233a3.002 3.002 0 0 0 1.703-.705l2.2-1.871a3.001 3.001 0 0 1 3.889 0Zm3.698 8.92-7.148 7.187-3.44-3.439-2.12 2.121 5.56 5.56 9.27-9.308-2.122-2.121Z" clip-rule="evenodd"/></svg>
